X:1499
M:3/4
O:Uppland
T:Polonäs ur HS Johanssons notbok nr 49
R:Polonäs
B:http://www.smus.se/earkiv/fmk/browselarge.php?lang=sw&katalogid=M+147&bildnr=00016
Z:Nils L
L:1/16
K:D
SDEFG ABcA d4 | ABcd efge f4 | f2ef g2e2b2g2 |1 egec d2dA GFED :|2 egec d4 D4 |]
afdf afdf afdf | afdf g2b2b2a2 | afdf afdf gece | d2f2 edcB AGFD S |
(:musicend:)
(:music:)
